X: 1
T: Put Me In The Big Chest
M: 4/4
L: 1/8
R: reel
K: Amaj
|:F|EFAB c2 cf|ecBA F2 AF|EFAB c2 cf|ecBc A3:|
|:c|efec eAAc|efec B3 c|efec efaf|ecBc A3:|
